assets/illustrations/default/accessibility-6.svg

<svg xmlns="http://www.w3.org/2000/svg" width="1080" height="1081" fill="none"><path fill="#C5D9FB" d="M397 878.514c214.287 0 388-173.714 388-388 0-214.287-173.713-388-388-388-214.286 0-388 173.713-388 388 0 214.286 173.714 388 388 388"/><path fill="#1968F0" d="M878.5 996.514c104.106 0 188.5-84.395 188.5-188.5s-84.394-188.5-188.5-188.5S690 703.908 690 808.014s84.394 188.5 188.5 188.5"/><path fill="#F06305" d="M765.58 415.316c26.143 0 47.336-21.193 47.336-47.336s-21.193-47.335-47.336-47.335-47.336 21.193-47.336 47.335c0 26.143 21.193 47.336 47.336 47.336M486.953 263.678c26.142 0 47.335-21.193 47.335-47.336s-21.193-47.336-47.335-47.336c-26.143 0-47.336 21.193-47.336 47.336s21.193 47.336 47.336 47.336"/><path fill="#C5D9FB" d="m903.941 544.785-21.124-2.003-46.635 491.868 21.124 2z"/><path fill="#8C3A03" d="m875.593 547.039 28.565 17.629-6.693 8.651-56.313-21.056-24.974-43.092 38.848-20.077 7.183 11.589 70.514 21.22 15.342 52.885-9.467-.653-22.851-40.48-23.015-4.897z"/><path fill="#F06305" d="M746.321 275.595c26.142 0 47.335-21.193 47.335-47.336s-21.193-47.336-47.335-47.336c-26.143 0-47.336 21.193-47.336 47.336s21.193 47.336 47.336 47.336"/><path fill="#F06305" d="m793.341 220.981-93.458 12.897 19.279 139.702 93.458-12.897z"/><path fill="#F06305" d="m809.286 351.427-86.854 36.842 59.278 139.748 86.855-36.842zM746.321 181.084l-259.694-12.078 15.997 291.197h202.727z"/><path fill="url(#a)" d="m718.406 371.408 17.466-118.993 12.405 195.872-26.116-61.372c0-.163-2.776-5.224-3.755-15.507"/><path fill="#F06305" d="m494.788 334.192 29.38-81.939-22.525 187.221z"/><path fill="#0096FA" d="M702.248 545.244H499.52l3.102-85.042h202.891z"/><path fill="url(#b)" d="M751.218 995.587 724.612 750.42c0-4.081-.49-7.998-1.306-11.752L702.25 545.244H592.235l22.199 205.176c0 3.917.326 7.671 1.142 11.262l25.464 233.905z"/><path fill="#0096FA" d="M630.921 750.42H520.906l-21.383-205.176h109.853zM570.854 995.587H461.003l59.903-245.167h110.015z"/><path fill="#0096FA" d="M575.912 805.429c30.38 0 55.007-24.628 55.007-55.008s-24.627-55.007-55.007-55.007-55.008 24.627-55.008 55.007 24.628 55.008 55.008 55.008"/><mask id="c" width="101" height="75" x="875" y="517" maskUnits="userSpaceOnUse" style="mask-type:luminance"><path fill="#fff" d="m893.388 557.976-17.79-10.936 17.138-18.281 67.413-11.263 14.853 37.705-18.771 36.073z"/></mask><g mask="url(#c)"><path fill="#C5D9FB" d="m927.91 554.843 2.188-23.074-65.16-6.178-2.188 23.074z"/><path fill="#072F73" d="M928.48 555.365c6.401 0 11.59-5.189 11.59-11.589s-5.189-11.588-11.59-11.588-11.588 5.187-11.588 11.588 5.188 11.589 11.588 11.589"/></g><path fill="#8C3A03" d="M699.685 24.985 616.692 16.6l-6.906 5.775-15.707 155.919 61.236 6.116 2.557-25.008 27.936 2.818c2.656-2.221 4.235-3.391 6.905-5.775l12.421-124.584z"/><path fill="#070308" d="m685.32 127.271-15.431-1.54c-.976-.087-1.554-.958-1.481-1.771s.958-1.554 1.771-1.481l12.829 1.308-10.028-30.883c-.253-.842.16-1.789 1.002-2.041.841-.253 1.788.159 2.04 1l10.787 33.41c.119.503.061 1.153-.293 1.449-.206.473-.709.592-1.196.549"/><path fill="#000" d="m707.522 17.982-99.338-8.859c-3.414-.304-6.262 2.227-6.552 5.479l-1.072 12.031c-.305 3.415-3.301 5.769-6.553 5.479-3.414-.305-6.262 2.228-6.552 5.48l-7.902 88.606c-.304 3.415 2.228 6.262 5.48 6.552l19.672 1.754c3.414.305 6.262-2.227 6.552-5.478l6.974-78.202c.304-3.415 3.3-5.77 6.552-5.48l79.828 7.119c3.414.304 6.261-2.227 6.551-5.479l1.972-22.11c.319-3.578-2.198-6.588-5.612-6.892"/><path fill="#8C3A03" d="m626.121 120.354-28.289-2.522c-3.577-.319-6.08-3.492-5.775-6.906l2.291-25.689 34.629 3.089z"/><path fill="url(#d)" d="m657.569 159.103-26.338-2.349 24.856 17.128z"/><path fill="#072F73" d="m653.606 995.75 85.694.489c1.143 5.221 4.734 23.991 25.137 25.301 38.522 2.61 23.015 21.06 23.015 21.06H646.261zM471.611 995.75l85.694.489c1.143 5.221 4.733 23.991 25.137 25.301 38.521 2.61 23.015 21.06 23.015 21.06H464.266z"/><path fill="url(#e)" d="m585.724 345.95-48.06-121.65 167.858 108.063-100.53 15.931c-.118-.113-9.748 2.594-19.268-2.344"/><path fill="#141414" fill-rule="evenodd" d="M643.5 92.014H604v-7h39.5zM663.258 94.307q-.029.056-.026.053l-6.462-2.693c1.543-3.703 7.033-8.098 16.89-7.65 9.519.433 17.326 4.114 20.282 6.084l-3.883 5.825c-2.044-1.363-8.637-4.549-16.717-4.916-3.851-.175-6.372.597-7.913 1.431-.779.422-1.325.868-1.684 1.241-.18.187-.308.35-.394.476a2 2 0 0 0-.093.15" clip-rule="evenodd"/><path fill="#141414" d="M663 90.514c0 8.836-7.163 16-16 16s-16-7.164-16-16 7.164-16 16-16 16 7.163 16 16M714 92.514c0 8.836-7.163 16-16 16s-16-7.164-16-16 7.164-16 16-16 16 7.163 16 16"/><path fill="#F06305" d="m604.215 414.371 11.447-42.375-30.104-.321 12.273-4.958-70.469-178.691-86.017 34.485 58.408 148.178 12.061 30.512.111-.052 7.296 18.347c15.885 40.212 73.643 36.731 84.994-5.125"/><path fill="#0096FA" d="m829.048 319.754-62.064-32.48c-2.272-1.232-3.132-3.966-1.935-6.152l56.484-108.097c1.197-2.186 3.967-3.129 6.154-1.932l62.064 32.479c2.272 1.233 3.132 3.967 1.935 6.153l-56.484 108.097c-1.112 2.22-3.932 3.044-6.154 1.932"/><path fill="#0C4EC0" d="m836.065 323.723-62.063-32.479c-2.272-1.232-3.132-3.966-1.935-6.152l56.484-108.096c1.231-2.271 3.967-3.129 6.154-1.932l62.063 32.479c2.272 1.232 3.132 3.967 1.935 6.153L842.22 321.792c-1.113 2.22-3.933 3.044-6.155 1.931"/><path fill="#8C3A03" d="m710.31 271.716 63.327-54.924 12.797-5.778 17.784-3.437 17.783 10.063 22.342 42.49-8.807 4.489-18.294-20.699 16.443 42.125-9.061 2.456-15.47-23.959 5.357 33.584-9.951 1.176-11.719-22.759.584 24.05-6.991.114-5.558-16.65-12.875 14.069-9.47 7.238-22.049 8.245"/><path fill="#F06305" d="m621.032 432.805-38.531-88.601 128.85-83.181 51.834 83.181z"/><defs><linearGradient id="a" x1="748.721" x2="713.88" y1="350.428" y2="349.338" gradientUnits="userSpaceOnUse"><stop offset=".082" stop-color="#F06305"/><stop offset=".92" stop-color="#B24800"/></linearGradient><linearGradient id="b" x1="718.988" x2="560.48" y1="765.787" y2="781.385" gradientUnits="userSpaceOnUse"><stop offset=".1" stop-color="#0096FA"/><stop offset=".341" stop-color="#058DF8"/><stop offset=".735" stop-color="#1274F3"/><stop offset=".901" stop-color="#1968F0"/></linearGradient><linearGradient id="d" x1="643.688" x2="653.081" y1="165.364" y2="140.702" gradientUnits="userSpaceOnUse"><stop stop-color="#8C3A03"/><stop offset=".706" stop-color="#642A04"/></linearGradient><linearGradient id="e" x1="635.982" x2="553.951" y1="263.496" y2="333.632" gradientUnits="userSpaceOnUse"><stop offset=".082" stop-color="#F06305"/><stop offset=".92" stop-color="#B24800"/></linearGradient></defs></svg>

<svg width="1080" height="1081" viewBox="0 0 1080 1081" fill="none" xmlns="http://www.w3.org/2000/svg">
<path d="M397 878.514C611.287 878.514 785 704.8 785 490.514C785 276.227 611.287 102.514 397 102.514C182.714 102.514 9.00012 276.227 9.00012 490.514C9.00012 704.8 182.714 878.514 397 878.514Z" fill="#C5D9FB"/>
<path d="M878.5 996.514C982.606 996.514 1067 912.119 1067 808.014C1067 703.908 982.606 619.514 878.5 619.514C774.394 619.514 690 703.908 690 808.014C690 912.119 774.394 996.514 878.5 996.514Z" fill="#1968F0"/>
<path d="M765.58 415.316C791.723 415.316 812.916 394.123 812.916 367.98C812.916 341.838 791.723 320.645 765.58 320.645C739.437 320.645 718.244 341.838 718.244 367.98C718.244 394.123 739.437 415.316 765.58 415.316Z" fill="#F06305"/>
<path d="M486.953 263.678C513.095 263.678 534.288 242.485 534.288 216.342C534.288 190.199 513.095 169.006 486.953 169.006C460.81 169.006 439.617 190.199 439.617 216.342C439.617 242.485 460.81 263.678 486.953 263.678Z" fill="#F06305"/>
<path d="M903.941 544.785L882.817 542.782L836.182 1034.65L857.306 1036.65L903.941 544.785Z" fill="#C5D9FB"/>
<path d="M875.593 547.039L904.158 564.668L897.465 573.319L841.152 552.263L816.178 509.171L855.026 489.094L862.209 500.683L932.723 521.903L948.065 574.788L938.598 574.135L915.747 533.655L892.732 528.758L875.593 547.039Z" fill="#8C3A03"/>
<path d="M746.321 275.595C772.463 275.595 793.656 254.402 793.656 228.259C793.656 202.116 772.463 180.923 746.321 180.923C720.178 180.923 698.985 202.116 698.985 228.259C698.985 254.402 720.178 275.595 746.321 275.595Z" fill="#F06305"/>
<path d="M793.341 220.981L699.883 233.878L719.162 373.58L812.62 360.683L793.341 220.981Z" fill="#F06305"/>
<path d="M809.286 351.427L722.432 388.269L781.71 528.017L868.565 491.175L809.286 351.427Z" fill="#F06305"/>
<path d="M746.321 181.084L486.627 169.006L502.624 460.203H705.351L746.321 181.084Z" fill="#F06305"/>
<path d="M718.406 371.408L735.872 252.415L748.277 448.287L722.161 386.915C722.161 386.752 719.385 381.691 718.406 371.408Z" fill="url(#paint0_linear_18735_2579)"/>
<path d="M494.788 334.192L524.168 252.253L501.643 439.474L494.788 334.192Z" fill="#F06305"/>
<path d="M702.248 545.244H499.52L502.622 460.202H705.513L702.248 545.244Z" fill="#0096FA"/>
<path d="M751.218 995.587L724.612 750.42C724.612 746.339 724.122 742.422 723.306 738.668L702.25 545.244H592.235L614.434 750.42C614.434 754.337 614.76 758.091 615.576 761.682L641.04 995.587H751.218Z" fill="url(#paint1_linear_18735_2579)"/>
<path d="M630.921 750.42H520.906L499.523 545.244H609.376L630.921 750.42Z" fill="#0096FA"/>
<path d="M570.854 995.587H461.003L520.906 750.42H630.921L570.854 995.587Z" fill="#0096FA"/>
<path d="M575.912 805.429C606.292 805.429 630.919 780.801 630.919 750.421C630.919 720.041 606.292 695.414 575.912 695.414C545.532 695.414 520.904 720.041 520.904 750.421C520.904 780.801 545.532 805.429 575.912 805.429Z" fill="#0096FA"/>
<mask id="mask0_18735_2579" style="mask-type:luminance" maskUnits="userSpaceOnUse" x="875" y="517" width="101" height="75">
<path d="M893.388 557.976L875.598 547.04L892.736 528.759L960.149 517.496L975.002 555.201L956.231 591.274L893.388 557.976Z" fill="white"/>
</mask>
<g mask="url(#mask0_18735_2579)">
<path d="M927.91 554.843L930.098 531.769L864.938 525.591L862.75 548.665L927.91 554.843Z" fill="#C5D9FB"/>
<path d="M928.48 555.365C934.881 555.365 940.07 550.176 940.07 543.776C940.07 537.375 934.881 532.188 928.48 532.188C922.08 532.188 916.892 537.375 916.892 543.776C916.892 550.176 922.08 555.365 928.48 555.365Z" fill="#072F73"/>
</g>
<path d="M699.685 24.9845L616.692 16.6009L609.786 22.376L594.079 178.295L655.315 184.411L657.872 159.403L685.808 162.221C688.464 160 690.043 158.83 692.713 156.446L705.134 31.8623L699.685 24.9845Z" fill="#8C3A03"/>
<path d="M685.32 127.271L669.889 125.731C668.913 125.644 668.335 124.773 668.408 123.96C668.48 123.147 669.366 122.406 670.179 122.479L683.008 123.787L672.98 92.904C672.727 92.0621 673.14 91.1151 673.982 90.8625C674.823 90.6098 675.77 91.0219 676.022 91.8638L686.809 125.273C686.928 125.776 686.87 126.426 686.516 126.722C686.31 127.195 685.807 127.314 685.32 127.271Z" fill="#070308"/>
<path d="M707.522 17.9817L608.184 9.12303C604.77 8.81856 601.922 11.35 601.632 14.6017L600.56 26.6334C600.255 30.0476 597.259 32.4019 594.007 32.1119C590.593 31.8075 587.745 34.3397 587.455 37.5913L579.553 126.198C579.249 129.613 581.781 132.46 585.033 132.75L604.705 134.504C608.119 134.809 610.967 132.277 611.257 129.026L618.231 50.8236C618.535 47.4094 621.531 45.0543 624.783 45.3442L704.611 52.463C708.025 52.7675 710.872 50.236 711.162 46.9844L713.134 24.8731C713.453 21.2963 710.936 18.2861 707.522 17.9817Z" fill="black"/>
<path d="M626.121 120.354L597.832 117.832C594.255 117.513 591.752 114.34 592.057 110.926L594.348 85.2373L628.977 88.3255L626.121 120.354Z" fill="#8C3A03"/>
<path d="M657.569 159.103L631.231 156.754L656.087 173.882L657.569 159.103Z" fill="url(#paint2_linear_18735_2579)"/>
<path d="M653.606 995.75L739.3 996.239C740.443 1001.46 744.034 1020.23 764.437 1021.54C802.959 1024.15 787.452 1042.6 787.452 1042.6H646.261L653.606 995.75Z" fill="#072F73"/>
<path d="M471.611 995.75L557.305 996.239C558.448 1001.46 562.038 1020.23 582.442 1021.54C620.963 1024.15 605.457 1042.6 605.457 1042.6H464.266L471.611 995.75Z" fill="#072F73"/>
<path d="M585.724 345.95L537.664 224.3L705.522 332.363L604.992 348.294C604.874 348.181 595.244 350.888 585.724 345.95Z" fill="url(#paint3_linear_18735_2579)"/>
<path fill-rule="evenodd" clip-rule="evenodd" d="M643.5 92.0137H604V85.0137H643.5V92.0137Z" fill="#141414"/>
<path fill-rule="evenodd" clip-rule="evenodd" d="M663.258 94.3071C663.238 94.3439 663.231 94.3618 663.232 94.3596L656.77 91.6672C658.313 87.9639 663.803 83.569 673.66 84.017C683.179 84.4497 690.986 88.1307 693.942 90.1012L690.059 95.9256C688.015 94.5628 681.422 91.3771 673.342 91.0098C669.491 90.8347 666.97 91.6075 665.429 92.4414C664.65 92.8633 664.104 93.3094 663.745 93.6824C663.565 93.8691 663.437 94.0321 663.351 94.158C663.308 94.2206 663.278 94.2708 663.258 94.3071Z" fill="#141414"/>
<path d="M663 90.5137C663 99.3502 655.837 106.514 647 106.514C638.164 106.514 631 99.3502 631 90.5137C631 81.6771 638.164 74.5137 647 74.5137C655.837 74.5137 663 81.6771 663 90.5137Z" fill="#141414"/>
<path d="M714 92.5137C714 101.35 706.837 108.514 698 108.514C689.164 108.514 682 101.35 682 92.5137C682 83.6771 689.164 76.5137 698 76.5137C706.837 76.5137 714 83.6771 714 92.5137Z" fill="#141414"/>
<path d="M604.215 414.371L615.662 371.996L585.558 371.675L597.831 366.717L527.362 188.026L441.345 222.511L499.753 370.689L511.814 401.201L511.925 401.149L519.221 419.496C535.106 459.708 592.864 456.227 604.215 414.371Z" fill="#F06305"/>
<path d="M829.048 319.754L766.984 287.274C764.712 286.042 763.852 283.308 765.049 281.122L821.533 173.025C822.73 170.839 825.5 169.896 827.687 171.093L889.751 203.572C892.023 204.805 892.883 207.539 891.686 209.725L835.202 317.822C834.09 320.042 831.27 320.866 829.048 319.754Z" fill="#0096FA"/>
<path d="M836.065 323.723L774.002 291.244C771.73 290.012 770.87 287.278 772.067 285.092L828.551 176.996C829.782 174.725 832.518 173.867 834.705 175.064L896.768 207.543C899.04 208.775 899.9 211.51 898.703 213.696L842.22 321.792C841.107 324.012 838.287 324.836 836.065 323.723Z" fill="#0C4EC0"/>
<path d="M710.31 271.716L773.637 216.792L786.434 211.014L804.218 207.577L822.001 217.64L844.343 260.13L835.536 264.619L817.242 243.92L833.685 286.045L824.624 288.501L809.154 264.542L814.511 298.126L804.56 299.302L792.841 276.543L793.425 300.593L786.434 300.707L780.876 284.057L768.001 298.126L758.531 305.364L736.482 313.609" fill="#8C3A03"/>
<path d="M621.032 432.805L582.501 344.204L711.351 261.023L763.185 344.204L621.032 432.805Z" fill="#F06305"/>
<defs>
<linearGradient id="paint0_linear_18735_2579" x1="748.721" y1="350.428" x2="713.88" y2="349.338" gradientUnits="userSpaceOnUse">
<stop offset="0.0815889" stop-color="#F06305"/>
<stop offset="0.920146" stop-color="#B24800"/>
</linearGradient>
<linearGradient id="paint1_linear_18735_2579" x1="718.988" y1="765.787" x2="560.48" y2="781.385" gradientUnits="userSpaceOnUse">
<stop offset="0.1004" stop-color="#0096FA"/>
<stop offset="0.3413" stop-color="#058DF8"/>
<stop offset="0.7352" stop-color="#1274F3"/>
<stop offset="0.9014" stop-color="#1968F0"/>
</linearGradient>
<linearGradient id="paint2_linear_18735_2579" x1="643.688" y1="165.364" x2="653.081" y2="140.702" gradientUnits="userSpaceOnUse">
<stop stop-color="#8C3A03"/>
<stop offset="0.7058" stop-color="#642A04"/>
</linearGradient>
<linearGradient id="paint3_linear_18735_2579" x1="635.982" y1="263.496" x2="553.951" y2="333.632" gradientUnits="userSpaceOnUse">
<stop offset="0.0815889" stop-color="#F06305"/>
<stop offset="0.920146" stop-color="#B24800"/>
</linearGradient>
</defs>
</svg>
